X: 18749
T: Ievan Polkka
R: polka
M: 2/4
K: Bminor
|:B>A Bc|dB Bd|cA Ac|d/c/B/A/ B>F|
B>A Bc|dB Bd|ef/e/ dc|1 dB B>F:|2 Bc de||
|:f>d df|ec cd|ef/e/ dc|Bc de|
f>d df|ec cd|ef/e/ dc|1 Bc de:|2 dB B>F||

